static/icons/toc.svg

<svg xmlns="http://www.w3.org/2000/svg" width="24" height="24"><path fill="currentColor" d="M3 4h18v2H3zm0 7h12v2H3zm0 7h18v2H3z"/></svg>

<svg xmlns="http://www.w3.org/2000/svg" viewBox="0 0 24 24" width="24" height="24"><path d="M3 4H21V6H3V4ZM3 11H15V13H3V11ZM3 18H21V20H3V18Z" fill="currentColor"></path></svg>
